X: 3352
M: C
L: 1/8
K: A
(ed) |\
cAce dBdf | ec a4 (ec) |\
dbgd caec | (3BcB (3AGF E2 (ed) |\
cAce dBdf | ec a4 (ec) |\
|: (3efe) |\
dcBA GBed | cdBc A2 (3(efe) |\
dcdB cBcA | (3GAB (3AGF E2 (ed) |\
cAce dBdf | ecea gegb |\
aefd cBAG | A2a2 A2 :|


